X: 118
T:Samhradh, Samhradh
M:3/4
L:1/4
S:Chieftains
D:Chieftains 5
R:air
N:Posted to the woodenflute mailing list February 2003
Z:Frances Campbell
K:G
e>fd | e2A | d>ef | g>fe | f>ed | B3 |
g>ag | f>ed | e2A | d2B | A>gf | e>dc |d2B | A3 ||
